app/dist/common/images/scpharmaceuticals.svg

<svg height="18" viewBox="0 0 18 18" width="18" xmlns="http://www.w3.org/2000/svg"><path d="m0 0h18v18h-18z" fill="#f0f3fa"/><path d="m8.76 6.16c-.02.15-.24.36-.35.44-.08-.05-.5-.16-1.57-.16-1.33 0-1.84.42-1.84.64s.5.38 1.63.6 2.37.52 2.37 1.2c0 .91-1.83 1.12-2.7 1.12-.85 0-2.18-.19-2.3-.25 0-.1.18-.32.27-.42.27.06 1.06.16 1.98.16 1.15.01 1.75-.32 1.75-.59 0-.29-.54-.5-1.7-.7-1.14-.2-2.3-.45-2.3-1.12 0-.68 1.12-1.08 2.63-1.08s1.96.1 2.13.16zm5.09.06c0 .18-.21.35-.32.41a6.16 6.16 0 0 0 -1.28-.16c-1.7 0-2.25.73-2.25 1.48 0 1.17.87 1.58 2.04 1.58s1.5-.13 1.64-.13c.12.03.26.29.32.41-.27.06-1.05.19-1.96.19-1.14 0-3.04-.31-3.04-2.05 0-1.73 2.22-1.95 3.04-1.95s1.76.19 1.81.22z" fill="#4d4e49"/><ellipse cx="9" cy="11.5" fill="#d3d9eb" rx="6" ry="1.5"/><path d="m4 11h10v1h-10z" fill="#8690ce"/></svg>

<!-- by TradingView --><svg width="18" height="18" viewBox="0 0 18 18" xmlns="http://www.w3.org/2000/svg"><path fill="#F0F3FA" d="M0 0h18v18H0z"/><path d="M8.76 6.16c-.02.15-.24.36-.35.44-.08-.05-.5-.16-1.57-.16-1.33 0-1.84.42-1.84.64 0 .22.5.38 1.63.6C7.76 7.9 9 8.2 9 8.88 9 9.79 7.17 10 6.3 10c-.85 0-2.18-.19-2.3-.25 0-.1.18-.32.27-.42.27.06 1.06.16 1.98.16C7.4 9.5 8 9.17 8 8.9c0-.29-.54-.5-1.7-.7C5.16 8 4 7.75 4 7.08 4 6.4 5.12 6 6.63 6c1.51 0 1.96.1 2.13.16ZM13.85 6.22c0 .18-.21.35-.32.41a6.16 6.16 0 0 0-1.28-.16c-1.7 0-2.25.73-2.25 1.48 0 1.17.87 1.58 2.04 1.58s1.5-.13 1.64-.13c.12.03.26.29.32.41-.27.06-1.05.19-1.96.19C10.9 10 9 9.69 9 7.95 9 6.22 11.22 6 12.04 6c.82 0 1.76.19 1.81.22Z" fill="#4D4E49"/><ellipse cx="9" cy="11.5" rx="6" ry="1.5" fill="#D3D9EB"/><path fill="#8690CE" d="M4 11h10v1H4z"/></svg>
